icons/svg/24x24/calendar/filled.svg

<svg xmlns="http://www.w3.org/2000/svg" width="24" height="24" viewBox="0 0 24 24">
  <path fill-rule="evenodd" d="M7.6172,12.6211 C6.8342,12.6211 6.1992,11.9861 6.1992,11.2021 C6.1992,10.4191 6.8342,9.7841 7.6172,9.7841 C8.4012,9.7841 9.0362,10.4191 9.0362,11.2021 C9.0362,11.9861 8.4012,12.6211 7.6172,12.6211 M12.0002,9.7841 C12.7832,9.7841 13.4182,10.4191 13.4182,11.2021 C13.4182,11.9861 12.7832,12.6211 12.0002,12.6211 C11.2172,12.6211 10.5822,11.9861 10.5822,11.2021 C10.5822,10.4191 11.2172,9.7841 12.0002,9.7841 M12.0002,14.2571 C12.7832,14.2571 13.4182,14.8921 13.4182,15.6761 C13.4182,16.4591 12.7832,17.0941 12.0002,17.0941 C11.2172,17.0941 10.5822,16.4591 10.5822,15.6761 C10.5822,14.8921 11.2172,14.2571 12.0002,14.2571 M16.3832,9.7841 C17.1662,9.7841 17.8012,10.4191 17.8012,11.2021 C17.8012,11.9861 17.1662,12.6211 16.3832,12.6211 C15.5982,12.6211 14.9642,11.9861 14.9642,11.2021 C14.9642,10.4191 15.5982,9.7841 16.3832,9.7841 M16.3832,14.2571 C17.1662,14.2571 17.8012,14.8921 17.8012,15.6761 C17.8012,16.4591 17.1662,17.0941 16.3832,17.0941 C15.5982,17.0941 14.9642,16.4591 14.9642,15.6761 C14.9642,14.8921 15.5982,14.2571 16.3832,14.2571 M12.0002,19.8471 C10.8492,19.8471 9.8642,19.8051 9.0152,19.7011 L9.0152,16.5391 C9.0152,15.2781 7.9942,14.2571 6.7332,14.2571 L4.2262,14.2571 C4.1752,13.5841 4.1532,12.8351 4.1532,12.0001 C4.1532,10.3661 4.2352,9.0581 4.4622,8.0171 L19.5382,8.0171 C19.7642,9.0581 19.8462,10.3661 19.8462,12.0001 C19.8462,18.5271 18.5272,19.8471 12.0002,19.8471 M2.0002,12.0001 C2.0002,12.8221 2.0202,13.5721 2.0762,14.2571 C2.1892,15.6761 3.1802,16.8761 4.5392,18.5511 C5.8972,20.2251 7.3912,21.6881 9.0362,21.8591 C9.9042,21.9491 10.8852,22.0001 12.0002,22.0001 C16.1072,22.0001 18.3932,21.3891 19.8912,19.8921 C21.3882,18.3931 22.0002,16.1071 22.0002,12.0001 C22.0002,7.8921 21.3882,5.6061 19.8912,4.1081 C19.1542,3.3721 18.2232,2.8511 16.9812,2.5111 C16.8502,2.4751 16.7212,2.5761 16.7212,2.7121 L16.7212,4.0521 C16.7212,4.6351 16.2952,5.1561 15.7142,5.2121 C15.0482,5.2751 14.4872,4.7531 14.4872,4.1001 L14.4872,2.4791 C14.4872,2.2621 14.3182,2.0821 14.1002,2.0661 C13.4582,2.0221 12.7622,2.0001 12.0002,2.0001 C11.2382,2.0001 10.5422,2.0221 9.8992,2.0661 C9.6812,2.0821 9.5132,2.2621 9.5132,2.4791 L9.5132,4.0521 C9.5132,4.6351 9.0872,5.1561 8.5062,5.2121 C7.8392,5.2751 7.2782,4.7531 7.2782,4.1001 L7.2782,2.7121 C7.2782,2.5761 7.1492,2.4751 7.0182,2.5111 C5.7762,2.8511 4.8462,3.3721 4.1082,4.1081 C2.6112,5.6061 2.0002,7.8921 2.0002,12.0001"/>
</svg>

<svg width="24" height="24" fill="none" xmlns="http://www.w3.org/2000/svg">
  <path fill-rule="evenodd" clip-rule="evenodd" d="M7.617 12.621a1.418 1.418 0 11.001-2.837 1.418 1.418 0 010 2.837zM12 9.784a1.418 1.418 0 110 2.836 1.418 1.418 0 010-2.836zm0 4.473a1.418 1.418 0 110 2.837 1.418 1.418 0 010-2.837zm4.383-4.473a1.418 1.418 0 110 2.836 1.418 1.418 0 010-2.836zm0 4.473a1.418 1.418 0 110 2.837 1.418 1.418 0 010-2.837zM12 19.847c-1.15 0-2.136-.042-2.985-.146V16.54a2.281 2.281 0 00-2.282-2.282H4.226A30.165 30.165 0 014.153 12c0-1.634.082-2.942.31-3.983h15.075c.226 1.041.308 2.35.308 3.983 0 6.527-1.319 7.847-7.846 7.847zM2 12c0 .822.02 1.572.076 2.257.113 1.42 1.104 2.62 2.463 4.294 1.358 1.674 2.852 3.137 4.497 3.308.868.09 1.85.141 2.964.141 4.107 0 6.393-.61 7.891-2.108 1.497-1.499 2.11-3.785 2.11-7.892 0-4.108-.613-6.394-2.11-7.892-.737-.736-1.668-1.257-2.91-1.597a.207.207 0 00-.26.201v1.34c0 .583-.426 1.104-1.007 1.16A1.118 1.118 0 0114.487 4.1V2.48a.416.416 0 00-.387-.414A30.77 30.77 0 0012 2c-.762 0-1.458.022-2.1.066a.415.415 0 00-.387.413v1.573c0 .583-.426 1.104-1.007 1.16A1.118 1.118 0 017.278 4.1V2.712a.207.207 0 00-.26-.2c-1.242.34-2.172.86-2.91 1.596C2.611 5.606 2 7.892 2 12z" fill="#000"/>
</svg>
